X: 786
T: Ganxie gongchandang
%%abc-version 2.0
%%abcx-abcm2ps-target-version 5.9.1 (29 Sep 2008)
%%abc-creator hum2abc beta
%%abcx-conversion-date 2013/10/02 07:52:30
%%abc-edited-by Helmut Schaffrath
%%humdrum-veritas 1429333691
%%humdrum-veritas-data 2215570859
%%continueall 1
%%barnumbers 0
L: 1/8
M: 2/4
K: F
c c A f [I:setbarnb 1]| 
d cA2 | 
f d c d | 
F DF2 | 
Ac2f | 
d c F3/ G/ | 
c A G F | 
C4 | 
Ac2f | 
d c F3/ G/ | 
c A G F | 
C4 |]  



